X:1
T:Glory to God
T:Glory to God
T:Charles Hutchinson Gabriel
T:Edith Sanford Tillotson, 1911
T:Public Domain Courtesy of the Cyber Hymnal™
T:Public Domain Courtesy of the Cyber Hymnal™
C:Charles Hutchinson Gabriel
Z:Public Domain
Z:Courtesy of the Cyber Hymnal™
%%score ( 1 2 ) ( 3 4 )
L:1/8
Q:1/4=100
M:4/4
K:G
V:1 treble 
V:2 treble 
V:3 bass 
V:4 bass 
V:1
 [DG]2 [DG]>[DG] (GA)[GB][Gc] | [Gd]4 [GB]4 | [FA]2 [FA]>[FA] [FA]2 [GB]>[Ac] | (z4 (3:2:6BedcBA) | %4
w: 1.~“Glo- ry to God * in the|high- est!”|Hark! how it rings o’er and||
w: 2.~“Glo- ry to God * in the|high- est!”|O- ver and o- ver it||
 [DG]2 [DG]>[DG] (GA)[GB][Gc] | [Gd]4 [GB]4 | A2 A>A [G^c]2 [GB]>[GA] | [Fd]6 z2 | %8
w: o’er! An- gels in * gar- ments|of splen-|dor, Throng from the bright o-|pen|
w: rings, Prais- ing the * in- fant|Mes- si-|ah, Prais- ing the great- est|of|
 [Ac]2 [FA]>[GB] [Ac]2 [FA]>[Ac] | [GB]4 [Gd]4 | [Ac][Ac] ([FA][Ac]) [GB][DA] [EG]2 | [FA]6 z2 x | %12
w: door. There in the hea- vens|is shin-|ing Beth- le- * hem’s won- der-|ful|
w: kings. O- ver the man- ger|so low-|ly Flash- es * the ra- di-|ant|
 [DG]2 [DG]>[DG] (GA)[GB][Gc] | [Gd]4 ([=Fd]2 [Ec]2) | [DB]2 [DB]>[DB] [DA]2 [DA]2 | [DG]6 z2 || %16
w: light— “Glo- ry to * God in|the high- *|est!” This is the ho-|ly|
w: light, “Glo- ry to * God in|the high- *|est!” This is the ho-|ly|
"^Refrain" [FA]2 [Fd]>[Fd] (3:2:1z x161/24 | [GB]2 [Gd]>[Gd] [Gd]4 | %18
w: night. * *||
w: night. “Glo- ry|to God, glo- ry|
 [Ge]2 [Gd]>[Gd] [Fc]2 [GB]>[GB] | [FA]4 [Fd]4 | [DG]2 [DG]2 [FA]2 [FA]2 | %21
w: |||
w: to God, Glo- ry to God|in the|high- est! Glo- ry,|
 [GB][GB][=FB][FB] [Ec]2 !fermata![Ge]2 | [Gd]2 G>[Gc] [GB]2 [DA]2 | [DG]6 z2 |] %24
w: |||
w: glo- ry, glo- ry in the|high- est! Glo- ry to|God|
V:2
 x4 D2 x2 | x8 | x8 | [GB]6 x2 | x4 D2 x2 | x8 | A2 A>A x4 | x8 | x8 | x8 | x8 | x9 | x4 D2 x2 | %13
 x8 | x8 | x8 || x4 [Fd]4 (3edc(3:2:2BA | x8 | x8 | x8 | x8 | x8 | x2 G3/2 x9/2 | x8 |] %24
V:3
 [G,B,]2 [G,B,]>[G,B,] (B,C)[G,D][G,A,] | [G,B,]4 [G,D]4 | [D,D]2 [D,D]>[D,D] [D,D]2 [D,D]>[D,D] | %3
 [G,D]6 z2 | [G,B,]2 [G,B,]>[G,B,] (B,C)[G,D][G,A,] | [G,B,]4 [G,D]4 | %6
 [F,D]2 [F,D]>[F,D] [E,A,]2 [E,A,]>[E,A,] | [D,A,]6 z2 | [D,D]2 [D,D]>[D,D] [D,D]2 [D,D]>[D,D] | %9
 [G,D]4 [G,B,]4 | [D,D][D,D] [D,D]2 [G,D][F,D] [E,^C]2 | (z D,C,B,, A,,) x4 | %12
 [G,B,]2 [G,B,]>[G,B,] (B,C)[G,D][G,A,] | [G,B,]4 G,4 | [D,G,]2 [D,G,]>[D,G,] [D,C]2 [D,C]2 | %15
 [G,B,]6 z2 || [D,D]2 [D,A,]>[D,A,] A,2 D2 x27/8 | [G,D]2 [G,B,]>[G,B,] [G,B,]4 | %18
 C2 [B,D]>[B,D] [A,D]2 [G,D]>[G,D] | [D,D]4 [D,C]4 | [G,B,]2 [G,B,]2 [D,D]2 [D,D]2 | %21
 [G,D][G,D][G,D][G,D] [C,C]2 !fermata![C,C]2 | [B,,D]2 [B,,D]>[C,E] [D,D]2 [D,C]2 | [G,,B,]6 z2 |] %24
V:4
 x4 G,2 x2 | x8 | x8 | x8 | x4 G,2 x2 | x8 | x8 | x8 | x8 | x8 | x8 | [D,D]6 E,F,E, | x4 G,2 x2 | %13
 x4 (B,,2 C,2) | x8 | x8 || x4 D,4 x27/8 | x8 | C2 x6 | x8 | x8 | x8 | x8 | x8 |] %24

